X:0291
T:The Jubilee.
N:no repeat sign after first part
M:2/4
L:1/16
Q:1/4=120
I: || ::
Z:Jack Campin * www.campin.me.uk * 2009
K:D
f2d4   cd|e2 A4 Bc|d2cB A2G2   |F2E2F2D2|\
f2d4   cd|e2 A4 e2|fedc edcB   |A4  A4 ||
ABcd e2e2|A2 d4 f2|ABcd e2g2   |f2d2e2c2|\
f2d4   cd|e2 A4 G2|F2ED FED[CE]|D4  D4 :|
<end>
<start>
